X: 4210
M: 6/8
L: 1/8
K: G
(3(D/E/F/ |\
gfg efg | fdd def | gfg aga |
bge e2f |\
gfg aga | bge efg | dcB cBA | BGG G2 :: D |\
efg fBB | bag fBB | eBB fBB | gfe ^dBB |\
efg fBB | bag fBB | efg fe^d | e3- e2 :|


